svg/business/lantern_fill.svg

<?xml version="1.0" encoding="UTF-8"?>
<svg width="24px" height="24px" viewBox="0 0 24 24" version="1.1" xmlns="http://www.w3.org/2000/svg" xmlns:xlink="http://www.w3.org/1999/xlink">
    <title>lantern_fill</title>
    <g id="Icon" stroke="none" stroke-width="1" fill="none" fill-rule="evenodd">
        <g id="Business" transform="translate(-336.000000, -240.000000)">
            <g id="lantern_fill" transform="translate(336.000000, 240.000000)">
                <path d="M24,0 L24,24 L0,24 L0,0 L24,0 Z M12.5934901,23.257841 L12.5819402,23.2595131 L12.5108777,23.2950439 L12.4918791,23.2987469 L12.4918791,23.2987469 L12.4767152,23.2950439 L12.4056548,23.2595131 C12.3958229,23.2563662 12.3870493,23.2590235 12.3821421,23.2649074 L12.3780323,23.275831 L12.360941,23.7031097 L12.3658947,23.7234994 L12.3769048,23.7357139 L12.4804777,23.8096931 L12.4953491,23.8136134 L12.4953491,23.8136134 L12.5071152,23.8096931 L12.6106902,23.7357139 L12.6232938,23.7196733 L12.6232938,23.7196733 L12.6266527,23.7031097 L12.609561,23.275831 C12.6075724,23.2657013 12.6010112,23.2592993 12.5934901,23.257841 L12.5934901,23.257841 Z M12.8583906,23.1452862 L12.8445485,23.1473072 L12.6598443,23.2396597 L12.6498822,23.2499052 L12.6498822,23.2499052 L12.6471943,23.2611114 L12.6650943,23.6906389 L12.6699349,23.7034178 L12.6699349,23.7034178 L12.678386,23.7104931 L12.8793402,23.8032389 C12.8914285,23.8068999 12.9022333,23.8029875 12.9078286,23.7952264 L12.9118235,23.7811639 L12.8776777,23.1665331 C12.8752882,23.1545897 12.8674102,23.1470016 12.8583906,23.1452862 L12.8583906,23.1452862 Z M12.1430473,23.1473072 C12.1332178,23.1423925 12.1221763,23.1452606 12.1156365,23.1525954 L12.1099173,23.1665331 L12.0757714,23.7811639 C12.0751323,23.7926639 12.0828099,23.8018602 12.0926481,23.8045676 L12.108256,23.8032389 L12.3092106,23.7104931 L12.3186497,23.7024347 L12.3186497,23.7024347 L12.3225043,23.6906389 L12.340401,23.2611114 L12.337245,23.2485176 L12.337245,23.2485176 L12.3277531,23.2396597 L12.1430473,23.1473072 Z" id="MingCute" fill-rule="nonzero"></path>
                <path d="M12,2 C12.5523,2 13,2.44772 13,3 L13,4 L14,4 C14.5523,4 15,4.44772 15,5 L16,5 C16.5266,5 16.9581,5.40699 16.9971,5.92357 C17.6932,6.20212 18.3384,6.53846 18.9187,6.92531 C20.7261,8.13028 22,9.90476 22,12 C22,14.0952 20.7261,15.8697 18.9187,17.0747 C17.6918,17.8926 16.1747,18.4847 14.5,18.7824 L14.5,21 C14.5,21.5523 14.0523,22 13.5,22 C12.9477,22 12.5,21.5523 12.5,21 L12.5,19 L11.5,19 L11.5,21 C11.5,21.5523 11.0523,22 10.5,22 C9.94772,22 9.5,21.5523 9.5,21 L9.5,18.7824 C7.82528,18.4847 6.30824,17.8926 5.08134,17.0747 C3.27388,15.8697 2,14.0952 2,12 C2,9.90476 3.27388,8.13028 5.08134,6.92531 C5.66162,6.53846 6.3068,6.20212 7.00288,5.92357 C7.04192,5.40699 7.47343,5 8,5 L9,5 C9,4.44772 9.44772,4 10,4 L11,4 L11,3 C11,2.44772 11.4477,2 12,2 Z M8.27381,7 L8.2718,7.00214 C7.20641,8.13411 6,9.8713 6,12 C6,14.1287 7.20641,15.8659 8.2718,16.9979 L8.27381,17 L11.3062,17 C11.2191,16.9384 11.1103,16.8589 10.9855,16.7627 C10.6409,16.497 10.183,16.1104 9.7282,15.6271 C8.79359,14.6341 8,13.3713 8,12 C8,10.6287 8.79359,9.36589 9.7282,8.37286 C10.183,7.88964 10.6409,7.503 10.9855,7.23732 C11.1103,7.14113 11.2191,7.06164 11.3062,7 L8.27381,7 Z M12.6938,7 C12.7809,7.06164 12.8897,7.14113 13.0145,7.23732 C13.3591,7.503 13.817,7.88964 14.2718,8.37286 C15.2064,9.36589 16,10.6287 16,12 C16,13.3713 15.2064,14.6341 14.2718,15.6271 C13.817,16.1104 13.3591,16.497 13.0145,16.7627 C12.8897,16.8589 12.7809,16.9384 12.6938,17 L15.7262,17 L15.7282,16.9979 C16.7936,15.8659 18,14.1287 18,12 C18,9.8713 16.7936,8.13411 15.7282,7.00214 L15.7262,7 L12.6938,7 Z" id="形状" fill="#09244B"></path>
            </g>
        </g>
    </g>
</svg>

<svg xmlns="http://www.w3.org/2000/svg" width="24" height="24"><g fill="none" fill-rule="evenodd"><path d="M24 0v24H0V0zM12.593 23.258l-.011.002-.071.035-.02.004-.014-.004-.071-.035c-.01-.004-.019-.001-.024.005l-.004.01-.017.428.005.02.01.013.104.074.015.004.012-.004.104-.074.012-.016.004-.017-.017-.427c-.002-.01-.009-.017-.017-.018m.265-.113-.013.002-.185.093-.01.01-.003.011.018.43.005.012.008.007.201.093c.012.004.023 0 .029-.008l.004-.014-.034-.614c-.003-.012-.01-.02-.02-.022m-.715.002a.023.023 0 0 0-.027.006l-.006.014-.034.614c0 .012.007.02.017.024l.015-.002.201-.093.01-.008.004-.011.017-.43-.003-.012-.01-.01z"/><path fill="#09244B" d="M12 2a1 1 0 0 1 1 1v1h1a1 1 0 0 1 1 1h1a1 1 0 0 1 .997.924 10.49 10.49 0 0 1 1.922 1.001C20.726 8.13 22 9.905 22 12s-1.274 3.87-3.081 5.075c-1.227.818-2.744 1.41-4.419 1.707V21a1 1 0 1 1-2 0v-2h-1v2a1 1 0 1 1-2 0v-2.218c-1.675-.297-3.192-.89-4.419-1.707C3.274 15.87 2 14.095 2 12s1.274-3.87 3.081-5.075a10.49 10.49 0 0 1 1.922-1.001A1 1 0 0 1 8 5h1a1 1 0 0 1 1-1h1V3a1 1 0 0 1 1-1M8.274 7l-.002.002C7.206 8.134 6 9.872 6 12c0 2.129 1.206 3.866 2.272 4.998l.002.002h3.032a10.826 10.826 0 0 1-1.578-1.373C8.794 14.634 8 13.371 8 12s.794-2.634 1.728-3.627A10.83 10.83 0 0 1 11.306 7zm4.42 0a10.83 10.83 0 0 1 1.578 1.373C15.206 9.366 16 10.629 16 12s-.794 2.634-1.728 3.627A10.826 10.826 0 0 1 12.694 17h3.032l.002-.002C16.794 15.866 18 14.128 18 12c0-2.129-1.206-3.866-2.272-4.998L15.726 7z"/></g></svg>
